!!!!SEGMENT: pl-kk--kk-i-2--045-001_certon-pierre--missa-ad-imitationem-moduli-le-temps-qui-court-kyrie.krn
!!!cenid: 16xx:1669
!!!COM: Certon, Pierre
!!!COM-rismid: pe30006023
!!!CDT: ~1510-1572/02/23
!!!CNT: French
!!!OPR: Missa Ad imitationem moduli [Le temps qui court]
!!!OTL: Kyrie
!!!OMV: 001
!!!PDT:
!!!AGN: Sacred; Mass
!!!SMS-siglum: PL-Kk
!!!SMS-shelfmark: Kk.I.2
!!!SMS-shelfwork: 045-001 M
!!!NIFC-rismid: 300258063
!!!URL-scan: http://repozytorium.nifc.pl/skany/pl-kk-nut--i-2
!!!ONB-nifc: Części mszy: Kyrie, Gloria, Credo, Sanctus, Agnus Dei; skany: C: 0069; A: 0173; T: 0273; B: 0372-0373;
!!!key: d:dor
**kern	**text	**kern	**text	**kern	**text	**kern	**text
*part4	*part4	*part3	*part3	*part2	*part2	*part1	*part1
*staff4	*staff4	*staff3	*staff3	*staff2	*staff2	*staff1	*staff1
*I"BASVS	*	*I"TENOR	*	*I"ALTVS	*	*I"DISCANTVS	*
*I'B	*	*I'T	*	*I'A	*	*I'S	*
*ICvox	*	*ICvox	*	*ICvox	*	*ICvox	*
*Ibass	*	*Itenor	*	*Ialto	*	*Isoprn	*
*clefF4	*	*clefC4	*	*clefC4	*	*clefC4	*
*d:dor	*	*d:dor	*	*d:dor	*	*d:dor	*
*k[]	*	*k[]	*	*k[]	*	*k[]	*
*M2/1	*	*M2/1	*	*M2/1	*	*M2/1	*
*met(c|)	*	*met(c|)	*	*met(c|)	*	*met(c|)	*
=1	=1	=1	=1	=1	=1	=1	=1
!	!	!	!	!LO:TX:t=P:problem: Altus zapisany w kluczu tenorowym	!	!LO:TX:t=P:problem: Discantus zapisany w kluczu tenorowym	!
!LO:TX:t=P:problem:kreska pseudotakotwa	!	!	!	!	!	!	!
1r	.	0r	.	1D	Ky-	0r	.
1D	Ky-	.	.	2.F/	-ri	.	.
!	!	!	!	!LO:TX:t=P:problem:kreska pseudotakotwa	!	!	!
.	.	.	.	4G/	e	.	.
=2	=2	=2	=2	=2	=2	=2	=2
!	!	!LO:TX:t=P:problem:kreska pseudotakotwa	!	!	!	!	!
2.F\	-ri-	1r	.	1A	.	1D	Ky-
4G\	-e	.	.	.	.	.	.
!LO:TX:t=P:problem:kreska pseudotakotwa	!	!	!	!	!	!	!
1A	.	1D	Kij-	2D/	e-	2.F/	-ri-
.	.	.	.	2.F/	-ley-	.	.
.	.	.	.	.	.	4G/	-e
=3	=3	=3	=3	=3	=3	=3	=3
!	!	!	!	!	!	!LO:TX:t=P:problem:kreska pseudotakotwa	!
2r	.	2.F/	-ri-	.	.	1A	.
.	.	.	.	4G/	-son	.	.
!	!	!	!	!LO:TX:t=P:problem:kreska pseudotakotwa	!	!	!
2D/	e-	.	.	2A/	.	.	.
.	.	4G/	-e	.	.	.	.
!	!	!LO:TX:t=P:problem:kreska pseudotakotwa	!	!	!	!	!
1.F	-ley-	1A	.	1r	.	2r	.
.	.	.	.	.	.	2D/	e-
=4	=4	=4	=4	=4	=4	=4	=4
*	*	*	*	*	*ij	*	*
.	.	1r	.	2A/	Ky-	2F/	.
!LO:TX:t=P:problem:kreska pseudotakotwa	!	!	!	!	!	!	!
2E\	-ſon	.	.	2.c\	-ri-	2G/	-ley-
!	!	!	!	!	!	!LO:TX:t=P:problem:kreska pseudotakotwa	!
2C/	.	2r	.	.	.	1A	-ſon
.	.	.	.	4B\	-e	.	.
2D/	.	2A/	Kij-	1A\	e-	.	.
=5	=5	=5	=5	=5	=5	=5	=5
1E	.	2c\	-ri-	.	.	1r	.
!	!	!	!	!LO:TX:t=P:problem:kreska pseudotakotwa	!	!	!
.	.	2B\	-e	2G/	-ley-	.	.
0AA	.	2.A/	.	2F/	.	2r	.
!	!	!	!	!LO:TX:t=P:problem:kreska pseudotakotwa	!	!	!
*	*	*	*	*	*	*	*ij
.	.	.	.	2E/	-son	2A/	e-
*	*	*	*	*	*Xij	*	*
.	.	4G/	.	.	.	.	.
=6	=6	=6	=6	=6	=6	=6	=6
!LO:TX:t=P:problem:kreska pseudotakotwa	!	!	!	!	!	!	!
.	.	4F/	.	2r	.	1.c	-ley-
.	.	4E/	.	.	.	.	.
.	.	1e	e-	2.A/	.	.	.
2r	.	.	.	.	.	.	.
.	.	.	.	4G/	.	.	.
!	!	!	!	!	!	!LO:TX:t=P:problem:kreska pseudotakotwa	!
*	*ij	*	*	*	*	*	*
2D/	Ky-	1d	-leij-	4F/	.	2B/	.
!	!	!	!	!LO:TX:t=P:problem:kreska pseudotakotwa	!	!	!
.	.	.	.	4E/	.	.	.
=7	=7	=7	=7	=7	=7	=7	=7
!	!	!	!	!LO:SIC:v:t=custos D	!	!	!
1.F	-ri-	.	.	4F/	.	2.A/	.
!	!	!	!	!LO:LB:g=original	!	!	!
.	.	.	.	4D/	.	.	.
*	*	*	*	*lig	*	*	*
!	!	!	!	!LO:N:vis=0	!	!	!
.	.	2c\	-son	1A	.	.	.
.	.	.	.	.	.	4G/	.
!	!	!LO:TX:t=P:problem:kreska pseudotakotwa	!	!	!	!	!
.	.	2d,\	.	.	.	4F/	.
.	.	.	.	.	.	4E/	.
!	!	!	!	!LO:N:vis=0	!	!	!
2E\	-e	1G	.	1c	.	1e	.
*	*	*	*	*Xlig	*	*	*
=8	=8	=8	=8	=8	=8	=8	=8
2C/	e-	.	.	.	.	.	.
2D/	.	2F/	.	2B\	.	1d	.
1AA	-ley-	1E	.	2.A/	.	.	.
.	.	.	.	.	.	2c\	.
!	!	!	!	!LO:TX:t=P:problem:kreska pseudotakotwa	!	!	!
.	.	.	.	4G/	.	.	.
=9	=9	=9	=9	=9	=9	=9	=9
!LO:SIC:v:t=custos D	!	!	!	!	!	!	!
!LO:TX:t=P:problem:kreska pseudotakotwa	!	!	!	!	!	!LO:TX:t=P:problem:kreska pseudotakotwa	!
0D	-ſon	2D/	.	4A/	.	1d	-son
*	*Xij	*	*	*	*	*	*Xij
.	.	.	.	4F/	.	.	.
.	.	2D/	.	2.B/	.	.	.
.	.	1.F	Kij-	.	.	1r	.
.	.	.	.	4A/	.	.	.
.	.	.	.	1A	.	.	.
!LO:LB:g=original	!	!	!	!	!	!	!
=10	=10	=10	=10	=10	=10	=10	=10
!	!	!LO:TX:t=P:problem:kreska pseudotakotwa	!	!	!	!	!
0r	.	.	.	.	.	2A/	Ky-
!	!	!	!	!LO:TX:t=P:problem:kreska pseudotakotwa	!	!	!
.	.	2E/	-ri-	2G/	.	2.c\	-ri-
.	.	2C/	-e	2A/	e-	.	.
.	.	.	.	.	.	4B\	-e
.	.	2D/	e-	2A/	-ley-	1A	e-
=11	=11	=11	=11	=11	=11	=11	=11
!LO:TX:t=P:problem:kreska pseudotakotwa	!	!	!	!	!	!	!
1r	.	1E	-leij-	2c\	-ſon	.	.
!	!	!	!	!	!	!LO:TX:t=P:problem:kreska pseudotakotwa	!
.	.	.	.	2B\	.	2G/	-ley-
2r	.	2.F/	-son	1A	.	2A/	.
2D/	.	.	.	.	.	2d\	.
.	.	4G/	.	.	.	.	.
=12	=12	=12	=12	=12	=12	=12	=12
1.F	.	4A/	.	2.A/	.	2c\	.
.	.	4B/	.	.	.	.	.
.	.	2c\	.	.	.	4A\	.
!	!	!	!	!LO:TX:t=P:problem:kreska pseudotakotwa	!	!LO:TX:t=P:problem:kreska pseudotakotwa	!
.	.	.	.	4G/	.	4B\	.
.	.	2A/	.	4F/	.	4c\	.
!	!	!	!	!	!	!LO:SIC:v:t=custos e 	!
.	.	.	.	4E/	.	4d\	.
!LO:TX:t=P:problem:kreska pseudotakotwa	!	!	!LO:LB:g=original	!	!	!	!
2E\	.	2.c\	.	1G	.	2.e\	.
=13	=13	=13	=13	=13	=13	=13	=13
2C/	.	.	.	.	.	.	.
.	.	4B\	.	.	.	4d\	.
2D/	.	4A\	.	2F/	.	1d	.
.	.	4G/	.	.	.	.	.
1AA	.	1A	.	1E	.	.	.
!	!	!	!	!	!	!LO:TX:t=P:problem:# above	!
.	.	.	.	.	.	2c#X\	-ſon
=14	=14	=14	=14	=14	=14	=14	=14
!LO:N:vis=00	!	!LO:N:vis=00	!	!	!	!LO:TX:t=P:problem:kreska pseudotakotwa	!
!	!	!	!	!LO:N:vis=00	!	!LO:N:vis=00	!
0D	.	0A	.	0D;	.	0d	.
!	!	!LO:LB:goriginal	!	!LO:LB:g=original	!	!	!
=15||	=15||	=15||	=15||	=15||	=15||	=15||	=15||
*M2/1	*	*M2/1	*	*M2/1	*	*M2/1	*
*met(c|)	*	*met(c|)	*	*met(c|)	*	*met(c|)	*
0r	.	1d	Chrij-	0r	.	0r	.
.	.	2d\	.	.	.	.	.
!	!	!LO:TX:t=P:problem:kreska pseudotakotwa	!	!	!	!	!
.	.	2d\	.	.	.	.	.
=16	=16	=16	=16	=16	=16	=16	=16
!LO:TX:t=P:problem:kreska pseudotakotwa	!	!	!	!	!	!	!
0r	.	1c	.	0r	.	0r	.
.	.	2.A/	-ste	.	.	.	.
.	.	4G/	.	.	.	.	.
=17	=17	=17	=17	=17	=17	=17	=17
1D	Chri-	2A/	e-	0r	.	0r	.
.	.	1B	-leij-	.	.	.	.
2D/	-ſte	.	.	.	.	.	.
2D/	.	1A	.	.	.	.	.
=18	=18	=18	=18	=18	=18	=18	=18
!LO:TX:t=P:problem:kreska pseudotakotwa	!	!	!	!LO:TX:t=P:problem:kreska pseudotakotwa	!	!	!
1C	e	.	.	0r	.	0r	.
!	!	!LO:TX:t=P:problem:kreska pseudotakotwa	!	!	!	!	!
.	.	2G/	-son	.	.	.	.
2AA/	.	2A/	.	.	.	.	.
1D	.	1F	.	.	.	.	.
=19	=19	=19	=19	=19	=19	=19	=19
.	.	.	.	1A	Chri-	0r	.
4C/	.	4E/	.	.	.	.	.
!LO:TX:t=P:problem:kreska pseudotakotwa	!	!LO:TX:t=P:problem:kreska pseudotakotwa	!	!	!	!	!
4BB/	.	4D/	.	.	.	.	.
*	*	*	*ij	*	*	*	*
2C/	.	2E/	Chrij-	2A/	-ſte	.	.
!LO:SIC:v:t=custos BBn	!	!	!	!	!	!	!
2D/	.	2F/	-ste	2A/	e-	.	.
!LO:LB:g=original	!	!	!	!	!	!	!
=20	=20	=20	=20	=20	=20	=20	=20
!	!	!	!	!	!	!LO:TX:t=P:problem:kreska pseudotakotwa	!
2BBn/	.	2D/	e-	1G	.	1r	.
1C	.	4E/	-leij-	.	.	.	.
.	.	4F/	.	.	.	.	.
.	.	4G/	.	2E/	-ley-	2r	.
.	.	4E/	.	.	.	.	.
4BB/	.	1A	.	1F	-ſon	2d\	Chri-
4AA/	.	.	.	.	.	.	.
=21	=21	=21	=21	=21	=21	=21	=21
1BB	.	.	.	.	.	2d\	.
!	!	!LO:TX:t=P:problem:kreska pseudotakotwa	!	!	!	!LO:TX:t=P:problem:kreska pseudotakotwa	!
.	.	2G/	.	4E/	.	2d\	-ſte
!	!	!	!	!LO:TX:t=P:problem:kreska pseudotakotwa	!	!	!
.	.	.	.	4D/	.	.	.
00AA	.	1.A	.	2E/	.	1c	e-
.	.	.	.	4A/	.	.	.
!	!	!	!	!LO:TX:t=P:problem:kreska pseudotakotwa	!	!	!
.	.	.	.	4B/	.	.	.
=22	=22	=22	=22	=22	=22	=22	=22
.	.	.	.	4c\	.	00A	-ley-
.	.	.	.	4d\	.	.	.
.	.	2G/	.	1e	.	.	.
.	.	2F/	.	.	.	.	.
.	.	4E/	.	1d\	.	.	.
.	.	4D/	.	.	.	.	.
=23	=23	=23	=23	=23	=23	=23	=23
!LO:TX:t=P:problem:kreska pseudotakotwa	!	!	!	!	!	!	!
.	.	1E	.	.	.	.	.
!	!	!	!	!LO:TX:t=P:problem:kreska pseudotakotwa	!	!	!
*	*	*	*	*	*ij	*	*
.	.	.	.	2c\	Chri-	.	.
!	!	!LO:TX:t=P:problem:kreska pseudotakotwa	!	!	!	!	!
2r	.	1D	-son	2d\	-ſte	.	.
*	*	*	*Xij	*	*	*	*
2D/	.	.	.	2F/	e-	.	.
=24	=24	=24	=24	=24	=24	=24	=24
2D/	.	1r	.	2F/	-ley-	1A	-ſon
!LO:TX:t=P:problem:kreska pseudotakotwa	!	!	!	!LO:TX:t=P:problem:kreska pseudotakotwa	!	!	!
2D/	.	.	.	2D/	-ſon	.	.
*	*	*	*	*	*Xij	*	*
2C/	.	2r	.	2E/	.	2r	.
!	!	!LO:TX:t=P:problem:kreska pseudotakotwa	!	!	!	!	!
2D/	.	2F/	CHrij-	1A	.	2d\	.
=25	=25	=25	=25	=25	=25	=25	=25
1BBn	.	2F/	-ste	.	.	2d\	.
!	!	!	!	!	!	!LO:TX:t=P:problem:kreska pseudotakotwa	!
.	.	2D/	e-	2G/	.	2d\	.
!LO:TX:t=P:problem:kreska pseudotakotwa	!	!	!	!	!	!	!
1AA	.	2E/	-le-	2.A/	.	1c	.
.	.	1A	-ij-	.	.	.	.
!	!	!	!	!LO:SIC:v:t=custos c	!	!	!
.	.	.	.	4B/	.	.	.
!	!	!	!	!LO:LB:goriginal	!	!	!
=26	=26	=26	=26	=26	=26	=26	=26
0r	.	.	.	2c\	.	2A/	.
!	!	!	!	!LO:TX:t=P:problem:kreska pseudotakotwa	!	!	!
.	.	2G/	.	2d\	.	2.B/	.
*	*	*lig	*	*	*	*	*
!	!	!LO:N:vis=00	!	!	!	!	!
.	.	1F	.	4d\	.	.	.
.	.	.	.	4c\	.	4A/	.
.	.	.	.	4B/	.	1A	.
!	!	!	!	!LO:TX:t=P:problem:kreska pseudotakotwa	!	!	!
.	.	.	.	4A/	.	.	.
=27	=27	=27	=27	=27	=27	=27	=27
!LO:TX:t=P:problem:kreska pseudotakotwa	!	!	!	!	!	!	!
!	!	!LO:N:vis=0	!	!	!	!	!
1r	.	1E	.	1B	.	.	.
*	*	*Xlig	*	*	*	*	*
!	!	!	!	!	!	!LO:TX:t=P:problem:kreska pseudotakotwa	!
.	.	.	.	.	.	2G/	.
!	!	!LO:SIC:v:t=custos f	!	!	!	!	!
2r	.	1A	-son	2A/	e-	2A/	.
!LO:TX:t=P:problem:kreska pseudotakotwa	!	!	!	!LO:TX:t=P:problem:kreska pseudotakotwa	!	!	!
2F\	.	.	.	2A/	-ley-	1c	Chri-
!	!	!LO:LB:goriginal	!	!	!	!	!
=28	=28	=28	=28	=28	=28	=28	=28
2E\	.	2r	.	2G/	-ſon	.	.
2D/	.	2f\	Chrij-	2F/	.	2B\	-ſte
2C/	.	2e\	.	1.A	.	2c\	.
!	!	!LO:TX:t=P:problem:kreska pseudotakotwa	!	!	!	!LO:TX:t=P:problem:kreska pseudotakotwa	!
2D/	.	2d\	.	.	.	2f\	e-
=29	=29	=29	=29	=29	=29	=29	=29
00AA	.	2.c\	-ste	.	.	2e\	-ley-
.	.	.	.	4G/	.	2d\	.
!	!	!	!	!LO:TX:t=P:problem:kreska pseudotakotwa	!	!	!
.	.	4B\	.	4F/	.	.	.
.	.	4A/	.	2E/	.	2c\	.
.	.	4G/	.	.	.	.	.
.	.	2A/	e-	2.c\	.	1e	.
=30	=30	=30	=30	=30	=30	=30	=30
!LO:TX:t=P:problem:kreska pseudotakotwa	!	!	!	!	!	!	!
.	.	2F/	-leij-	.	.	.	.
.	.	.	.	4B\	.	.	.
.	.	4E/	.	4A\	.	1d	.
.	.	4D/	.	4G/	.	.	.
!	!	!	!	!LO:TX:t=P:problem: w źródle longa bez kropek	!	!	!
!	!	!	!	!LO:N:vis=00	!	!	!
.	.	1E	.	00..A	.	.	.
!	!	!	!	!	!	!LO:SIC:v:t=custos d	!
.	.	.	.	.	.	2c\	.
!	!	!	!	!	!	!LO:LB:g=original	!
=31	=31	=31	=31	=31	=31	=31	=31
*	*	*lig	*	*	*	*	*
!	!	!LO:N:vis=0	!	!	!	!	!
2r	.	1D	.	.	.	1d	.
2.F\	.	.	.	.	.	.	.
!	!	!LO:N:vis=0	!	!	!	!	!
.	.	1F	.	.	.	2A/	.
4E\	.	.	.	.	.	.	.
1D	.	.	.	.	.	1f	.
*	*	*Xlig	*	*	*	*	*
=32	=32	=32	=32	=32	=32	=32	=32
.	.	2D/	.	.	.	.	.
2C/	.	2E/	-son	.	.	2e\	.
1D	.	1F	.	.	.	1d	-ſon
=33	=33	=33	=33	=33	=33	=33	=33
!	!	!	!	!	!	!LO:TX:t=P:problem:# above	!
!LO:N:vis=00	!	!	!	!	!	!	!
!	!	!	!	!	!	!LO:N:vis=00	!
0AA;	.	0E	.	.	.	0c#X	.
!LO:LB:g=original	!	!	!	!	!	!	!
=34||	=34||	=34||	=34||	=34||	=34||	=34||	=34||
*M2/1	*	*M2/1	*	*M2/1	*	*M2/1	*
*met(c|)	*	*met(c|)	*	*met(c|)	*	*met(c|)	*
!LO:TX:t=P:problem:kreska pseudotakotwa	!	!	!	!	!	!	!
0r	.	0r	.	0r	.	1.d	Ky-
.	.	.	.	.	.	2c\	-ri-
=35	=35	=35	=35	=35	=35	=35	=35
2r	.	0r	.	1r	.	1B	-e
1G	Ky-	.	.	.	.	.	.
!	!	!	!	!	!	!LO:TX:t=P:problem:kreska pseudotakotwa	!
.	.	.	.	1.d	Ky-	1A	.
!LO:TX:t=P:problem:kreska pseudotakotwa	!	!	!	!	!	!	!
2F\	-ri-	.	.	.	.	.	.
=36	=36	=36	=36	=36	=36	=36	=36
!	!	!LO:TX:t=P:problem:kreska pseudotakotwa	!	!	!	!	!
2E\	-e	1r	.	.	.	1.e	.
!	!	!	!	!LO:TX:t=P:problem:kreska pseudotakotwa	!	!	!
1A	e-	.	.	2c\	-ri-	.	.
.	.	2r	.	1B	-e	.	.
!LO:TX:t=P:problem:kreska pseudotakotwa	!	!	!	!	!	!	!
2G\	-ley-	2.d\	Kij-	.	.	2B\	.
=37	=37	=37	=37	=37	=37	=37	=37
1F	.	.	.	2A/	e-	2c\	.
.	.	4c\	-rie	.	.	.	.
.	.	4B\	.	1A	-ley-	2d\	.
.	.	4A\	.	.	.	.	.
1E	-ſon	1B	.	.	.	2.e\	.
!	!	!	!	!LO:TX:t=P:problem:kreska pseudotakotwa	!	!	!
.	.	.	.	2G/	-ſon	.	.
!	!	!	!	!	!	!LO:TX:t=P:problem:kreska pseudotakotwa	!
.	.	.	.	.	.	4d\	.
=38	=38	=38	=38	=38	=38	=38	=38
!LO:TX:t=P:problem:kreska pseudotakotwa	!	!LO:TX:t=P:problem:kreska pseudotakotwa	!	!	!	!	!
1AA	.	1A	.	2A/	.	4c\	.
.	.	.	.	.	.	4B\	.
.	.	.	.	2E/	.	1e	.
1r	.	2r	.	2G/	.	.	.
.	.	1A	Kij-	2A/	.	4d\	.
.	.	.	.	.	.	4c\	.
=39	=39	=39	=39	=39	=39	=39	=39
!	!	!	!	!LO:TX:t=P:problem:kreska pseudotakotwa	!	!	!
1r	.	.	.	1E	.	1B	.
.	.	2G/	.	.	.	.	.
2r	.	2.F/	-rie	2r	.	2A/	.
*	*ij	*	*	*	*ij	*	*
1D	e-	.	.	1A	Ky-	1f	e-
.	.	4E/	.	.	.	.	.
=40	=40	=40	=40	=40	=40	=40	=40
.	.	2F/	e	.	.	.	.
!LO:TX:t=P:problem:kreska pseudotakotwa	!	!	!	!LO:TX:t=P:problem:kreska pseudotakotwa	!	!	!
2C/	.	2.G/	leij-	2E/	-ri-	1e	-ley-
2BBn/	.	.	.	2F/	-e	.	.
.	.	4F/	.	.	.	.	.
!	!	!	!	!LO:TX:t=P:problem:kreska pseudotakotwa	!	!	!
2BB/	-ley-	4E/	.	2G/	e-	1d\	.
.	.	4D/	.	.	.	.	.
=41	=41	=41	=41	=41	=41	=41	=41
!LO:TX:t=P:problem:kreska pseudotakotwa	!	!	!	!	!	!	!
1AA	-ſon	1E	-son	1A	-ley-	.	.
*	*Xij	*	*	*	*	*	*
!	!	!	!	!	!	!LO:TX:t=P:problem:kreska pseudotakotwa	!
.	.	.	.	.	.	2c\	-ſon
2r	.	1D	.	2F/	.	2d\	.
1D	Ky-	.	.	1A	.	2D/	.
=42	=42	=42	=42	=42	=42	=42	=42
!	!	!LO:SIC:v:t=custos D	!	!	!	!	!
.	.	1r	.	.	.	2F/	.
!LO:TX:t=P:problem:kreska pseudotakotwa	!	!	!	!LO:TX:t=P:problem:kreska pseudotakotwa	!	!	!
!	!	!LO:LB:g=original	!	!	!	!	!
2C/	-ri-	.	.	2A/	.	2E/	.
!	!	!	!	!	!	!LO:SIC:v:t=custos A 	!
2BB/	-e	2r	.	2G/	.	1D	.
*	*	*	*ij	*	*	*	*
1D	e-	2D/	Kij-	2.F/	.	.	.
!	!	!	!	!	!	!LO:LB:g=original	!
=43	=43	=43	=43	=43	=43	=43	=43
*	*	*	*	*	*	*lig	*
!	!	!	!	!	!	!LO:N:vis=0	!
.	.	2F/	-rie	.	.	1A	.
!	!	!	!	!LO:SIC:v:t=custos A	!	!	!
.	.	.	.	4E/	.	.	.
!LO:TX:t=P:problem:kreska pseudotakotwa	!	!	!	!	!	!	!
2C/	-ley-	2E/	e-	1A	.	.	.
!	!	!	!	!	!	!LO:N:vis=0	!
1BB	-ſon.	1D	-leij-	.	.	1d	.
.	.	.	.	2G/	.	.	.
!	!	!	!	!LO:TX:t=P:problem:kreska pseudotakotwa	!	!	!
*	*	*	*	*	*	*Xlig	*
=44	=44	=44	=44	=44	=44	=44	=44
!	!	!LO:TX:t=P:problem:kreska pseudotakotwa	!	!	!	!	!
2.AA/	.	1E	-son	2.A/	.	2c\	Ky-
*	*	*	*Xij	*	*	*	*
!	!	!	!	!	!	!LO:TX:t=P:problem:kreska pseudotakotwa	!
.	.	.	.	.	.	2A/	-ri-
!LO:TX:t=P:problem:kreska pseudotakotwa	!	!	!	!	!	!	!
4BB/	.	.	.	8G/	.	.	.
.	.	.	.	8F/	.	.	.
2C/	.	2r	.	2E/	.	2A/	-e
!LO:SIC:v:t=custos AA	!	!	!	!	!	!	!
!LO:TX:t=P:problem:kreska pseudotakotwa	!	!	!	!LO:TX:t=P:problem:kreska pseudotakotwa	!	!	!
2D/	.	2A/	Kij-	2D/	-ſon	2A/	e-
!LO:LB:g=original	!	!	!	!	!	!	!
*	*	*	*	*	*Xij	*	*
=45	=45	=45	=45	=45	=45	=45	=45
2AA,/	.	2A/	.	1r	.	1c	.
!LO:TX:t=P:problem:kreska pseudotakotwa	!	!	!	!	!	!	!
*	*ij	*	*	*	*	*	*
2A\	Ky-	2A/	.	.	.	.	.
2A\	-ri-	2.c\	.	2r	.	2A/	-ley-
2A\	-e	.	.	2A/	Ky-	2.c\	-ſon
!	!	!LO:TX:t=P:problem:kreska pseudotakotwa	!	!	!	!	!
.	.	4B\	.	.	.	.	.
=46	=46	=46	=46	=46	=46	=46	=46
2.c\	e-	4A\	-rie	2A/	-ri-	.	.
.	.	4G\	.	.	.	4B\	.
!	!	!	!	!LO:TX:t=P:problem:kreska pseudotakotwa	!	!	!
.	.	4F/	.	2A/	-e	4A\	.
!LO:TX:t=P:problem:kreska pseudotakotwa	!	!LO:TX:t=P:problem:kreska pseudotakotwa	!	!	!	!	!
4B\	-ley-	4G/	.	.	.	4G/	.
!	!	!	!	!	!	!LO:TX:t=P:problem:kreska pseudotakotwa	!
4A\	.	4A\	e-	1.c	e-	1F	.
4G\	.	4B\	-leij-	.	.	.	.
1A	.	4c\	.	.	.	.	.
!	!	!LO:TX:t=P:problem:kreska pseudotakotwa	!	!	!	!	!
.	.	4d\	.	.	.	.	.
=47	=47	=47	=47	=47	=47	=47	=47
.	.	4e\	.	.	.	1r	.
.	.	4c\	.	.	.	.	.
!LO:TX:t=P:problem:kreska pseudotakotwa	!	!	!	!	!	!	!
2G\	.	2.d\	.	2B\	-ley-	.	.
2.F\	.	.	.	2.A/	.	2r	.
.	.	4B\	.	.	.	.	.
!	!	!LO:TX:t=P:problem:kreska pseudotakotwa	!	!	!	!	!
.	.	2c\	.	.	.	1f	e-
4E\	.	.	.	4G/	.	.	.
=48	=48	=48	=48	=48	=48	=48	=48
2D/	.	2d\	.	1A	.	.	.
2C/	.	2e\	.	.	.	1e	-ley-
2D/	.	2A/	-son	2F/	.	.	.
2GG/	.	2B/	.	2G/	.	1d	.
=49	=49	=49	=49	=49	=49	=49	=49
1AA	.	1A	.	1E	.	.	.
!	!	!	!	!	!	!LO:TX:t=P:problem:kreska pseudotakotwa	!
.	.	.	.	.	.	2c\	-ſon
!	!	!LO:TX:t=P:problem:kreska pseudotakotwa	!	!	!	!	!
0D	-ſon	1F	.	0D	-ſon	2d\	.
*	*Xij	*	*	*	*	*	*
.	.	.	.	.	.	2A/	.
=50	=50	=50	=50	=50	=50	=50	=50
!LO:TX:t=P:problem:kreska pseudotakotwa	!	!	!	!LO:TX:t=P:problem:kreska pseudotakotwa	!	!	!
.	.	2r	.	.	.	2A/	.
!	!	!	!	!	!	!LO:TX:t=P:problem:kreska pseudotakotwa	!
.	.	2A/	Kij-	.	.	2A/	.
2r	.	2A/	.	1r	.	1c	.
!LO:TX:t=P:problem:kreska pseudotakotwa	!	!	!	!	!	!	!
2A\	Ky-	2A/	-rie	.	.	.	.
=51	=51	=51	=51	=51	=51	=51	=51
2A\	-ri-	2.c\	.	2r	.	2A/	.
!LO:TX:t=P:problem:kreska pseudotakotwa	!	!	!	!	!	!	!
2A\	-e	.	.	2A/	Ky-	2.c\	.
!	!	!LO:TX:t=P:problem:kreska pseudotakotwa	!	!	!	!	!
.	.	4B\	.	.	.	.	.
2.c\	e-	4A/	e-	2A/	-ri-	.	.
.	.	4G/	.	.	.	4B\	.
!	!	!	!	!LO:TX:t=P:problem:kreska pseudotakotwa	!	!	!
.	.	4F/	.	2A/	-e	4A/	.
!LO:TX:t=P:problem:kreska pseudotakotwa	!	!	!	!	!	!	!
4B\	-ley-	4G/	-leij-	.	.	4G/	.
=52	=52	=52	=52	=52	=52	=52	=52
!	!	!	!	!	!	!LO:TX:t=P:problem:kreska pseudotakotwa	!
4A\	.	4A/	.	1.c	e-	1F	.
!LO:SIC:v:t=custos A	!	!	!	!	!	!	!
4G\	.	4B/	.	.	.	.	.
!LO:LB:g=original	!	!	!	!	!	!	!
1A	.	4c\	.	.	.	.	.
!	!	!LO:SIC:v:t=custos E	!	!	!	!	!
.	.	4d\	.	.	.	.	.
!	!	!LO:LB:g=original	!	!	!	!	!
.	.	4e\	.	.	.	1r	.
.	.	4c\	.	.	.	.	.
!LO:TX:t=P:problem:kreska pseudotakotwa	!	!	!	!	!	!	!
2G\	.	2.d\	.	2B\	-ley-	.	.
=53	=53	=53	=53	=53	=53	=53	=53
2.F\	.	.	.	2.A/	.	2r	.
.	.	4B\	.	.	.	.	.
!	!	!LO:TX:t=P:problem:kreska pseudotakotwa	!	!	!	!LO:TX:t=P:problem:kreska pseudotakotwa	!
.	.	2c\	.	.	.	2f\	Ky-
!	!	!	!	!LO:SIC:v:t=custos A	!	!	!
4E\	.	.	.	4G/	.	.	.
2D/	.	2d\	.	1A	.	2f\	-ri-
!LO:TX:t=P:problem:kreska pseudotakotwa	!	!	!	!	!	!	!
2C/	.	2e\	-son	.	.	1e	-e
=54	=54	=54	=54	=54	=54	=54	=54
2D/	.	2A/	.	2F/	.	.	.
2GG/	.	2B\	.	2G/	.	1d	e-
!	!	!LO:TX:t=P:problem: w źródle brevis bez kropki	!	!	!	!	!
!	!	!LO:N:vis=0	!	!	!	!	!
1AA	.	0.A	.	1E	.	.	.
!	!	!	!	!	!	!LO:TX:t=P:problem:# above	!
.	.	.	.	.	.	2c#X\	-ley-
=55	=55	=55	=55	=55	=55	=55	=55
0D	-ſon	.	.	0D;	-ſon	0d	-ſon
==	==	==	==	==	==	==	==
*-	*-	*-	*-	*-	*-	*-	*-
!!!system-decoration: [(s1,s2,s3,s4)]
!!!ENC: Anastazja Marusiak
!!!END: 2022-01-17
!!!ENC: Jan Barakat
!!!END: 2022-01-23
